X: 5428
T: Bull Pup
R: polka
M: 2/4
K: Ddorian
|:F/E/|D>F AA|DF A>D|GB cB/c/|GB d/c/B/A/|
DF AB|c/B/A BA|c/B/A Bc|d2 D:|
|:A/d/|fa d2|fa dA/d/|gf ed|g/f/e/d/ c/B/A/e/|
fa dA/d/|fa d>A|c/B/A B^c|d3:|

